X:129
T: Heichengshou
N: C1623
O: China,Zhejiang, Zhoushan
S: III, 633]
R: Xiaodiao. Ma caizhu]
M: 2/4
L: 1/16
K: F
ff3dc3 | d2cAG2z2 |
cc3AA3 | GG2AF2z2 |
G2GFGG3 | c2cAG2z2 |
c2cAd2cA | G2D2F2z2 |
D2F2D2F2 | G2A2G2z2 |
A2d2A3c | G2D2F2z2 |
Ac3d2c2 | A3dc2z2 |
dc2AG2F2 | GG2AF2z2 |
DF3DF3 | A2A2G2z2 |
cc2AG3F | F2G2F2z2 |
A2c2A2c2 | ff3d2cA | G8 |
c2c2A2GF | F2A2G2F2 | F2A2G2E2 | D8 |
DCDFG2z2 | c3AG2z2 |
F2A2G2F2 | F2A2G2E2 | D8

@@@ Tune index: 6684
